X:1
T:Title
%%score { ( 1 3 ) | ( 2 4 ) }
L:1/8
M:6/8
K:G
V:1 treble nm="Grand Piano"
V:3 treble 
V:2 treble 
V:4 treble 
V:1
 z3 z2[Q:1/4=87] G/A/ | B>BB cGA |[M:5/8] B2 D G2 |[M:1/8] B/[Ac]/ |[M:3/4] z2 z .d3 | %5
[M:2/4] c B3 |[M:1/8] G/A/ |[M:3/4] B>B Bc GA |[M:5/8] B2 D G2 |[M:1/8] B/B/ | %10
[M:3/4] [GB]>[GB] [GB][GB] [Ac][Bd] | [Bd]2 c c2 c | [FA]>[FA] [FA][DFA] [DGB][DAc] | %13
 [DGd]2 [B,EG] [Ec]2 [DG]/[EA]/ | BD G B2 A |[M:2/4] A G3 |] %16
V:2
 z3 z2 [G,B,]/[G,CG]/ | [G,DG]>[G,DG][G,DG] [G,EG][G,E][G,^DG] |[M:5/8] [G,DG]2 [G,B,] [G,B,D]2 | %3
[M:1/8] [G,DG]/[K:bass][G,D]/ |[M:3/4] [D,D][D,C] [D,B,]A, G,[D,CD] |[M:2/4] [G,E] [G,D]3 | %6
[M:1/8] [G,B,]/[K:treble][G,CG]/ |[M:3/4] [G,DG]>[G,DG] [G,DG][G,EG] [G,E][G,^DG] | %8
[M:5/8] [G,DG]2 [G,B,] [G,B,D]2 |[M:1/8] [G,DG]/[G,DG]/ | %10
[M:3/4][K:bass] [E,E]>[E,E] [E,E][E,E] [E,E][E,E] | [A,E]2 [A,EA] [A,EA]2 [A,EA] | %12
 [D,D]>[D,D] [D,D]C, B,,A,, | B,,2 E, [A,,A,]2 [B,,G,]/[C,G,]/ | %14
 [D,G,D][D,B,] [D,B,D] [D,D]2 [D,CD] |[M:2/4] [G,CD] [G,B,D]3 |] %16
V:3
 x6 | x6 |[M:5/8] x5 |[M:1/8] x |[M:3/4] [Bd][Ad] [Gd]F EF |[M:2/4] x4 |[M:1/8] x |[M:3/4] x6 | %8
[M:5/8] x5 |[M:1/8] x |[M:3/4] x6 | x6 | x6 | x6 | x6 |[M:2/4] x4 |] %16
V:4
 x6 | x6 |[M:5/8] x5 |[M:1/8] x/[K:bass] x/ |[M:3/4] z2 z .D,3 |[M:2/4] x4 | %6
[M:1/8] x/[K:treble] x/ |[M:3/4] x6 |[M:5/8] x5 |[M:1/8] x |[M:3/4][K:bass] x6 | x6 | x6 | x6 | %14
 x6 |[M:2/4] x4 |] %16

